X: 28237
T: Mrs. Gordon Of Baird
R: jig
M: 6/8
K: Fmajor
|:A2c cfa|B2d dBd|c2d cAF|EG2 G2B|
A2c cfa|B2d dBd|c2e geg|1 f3 f2f:|2 f3 f2c'||
|:a2f fef|g2c cAc|a2f c'af|eg2 g2c'|
[1 a2f fef|g2c cAc|f2a geg|f3 f2c':|
[2 a2f c'af|g2e bge|f2a gec|f3 f2f||

